X:10
T:Hellebore
S:Naragonia Quartet: https://www.youtube.com/watch?v=oXUj4okEAZg
Z:robin.beech@mcgill.ca
R:Schottische
M:4/4
L:1/8
K:Gmin
DGBd c3A | BcBG A3G | ^FGAG F2D2 |1 ^FGAG BGA2:|2 ^FGAF G4 |:
d3A c3A | BcBG A3G | ^FGAG F2D2 |1 ^FGAG BGA2 :|2 ^FGAF G4 |]
